X:27
T:Needle Case
M:4/4
L:1/8
Z:abc-transcription Josh Larios <hades@elsewhere.org>, 2014.01.20
C:Arr. Scott Marckx/Jeannie Murphy
B:Complete Tractor, p.132
K:D
|:"D"a2g2fed2 | "G"B2g2B2g2 | "D"a2g2fed2 | "A"cA Bc A2A2 |
"D"a2g2fed2 | "G"B2g2B2g2 | "A"AB cd ef ed | cA Bc "D"d2d2 :|
|: "D"D2F2A2A2 | "G"BA Bc d2 dB | "D"A2 ABA2 F2 | "A"E3FE2E2 |
"D"D2F2A2A2 | "G"BA Bc d2 dB | "A"AB cd ef ed | cA Bc "D"d2d2 :|

